X:2555
T:Here's the Tender Comin'
O:england
S:Digital Tradition, tndrcomn
B:From Songs of the Sea, Hugill
M:9/8
L:1/8
Q:3/8=100
W:Here's the tender cominn'
W:Pressing all the maen
W:Oh, my hinny, what shall we do then?
W:Here's the tender comin'
W:Off at Shield's bar
W:Here's the tender comin'
W:Full of men-o'-war.
W:
W:Hide thee, canny Geordie
W:Hide thyself away,
W:Hide thee till the tender
W:Makes for Druid's bay;
W:If they catch thee Geordie
W:Who's to win our bread?
W:Me and little Jacky'd
W:Better off be dead.
W:
W:Here's the tender comin'
W:A-stealin' of me dear,
W:Oh, my hinny,
W:They'll press ye out o' here;
W:They will send ye foreign
W:THat is what this means,
W:Here's the tender comin'
W:Full o' red marines.
W:
W:Here's the tender cominn'
W:Pressing all the maen
W:Oh, my hinny, what shall we do then?
W:Here's the tender comin'
W:Off at Shield's bar
W:Here's the tender comin'
W:Full of men-o'-war.
K:D
A2G F2A D2E|F2B B2F A3|A3 F2-E D2E|F2A B2F E3|
D2F c2d c2A|d2B A2F A3|D2F d2d c2A|d2B A2F E3||


